X:1
T:Hor gitevi a fidare
T:Luca Marenzio
T:Source : Il quinto libro delle Villanelle a tre voci---Venetia---Herede di G.Scotto---1587. Editor : André Vierendeels (08/05/17).
T:Notes : Original clefs : G2, C1, F3 Editorial accidentals above the staff Music collected by Attilio Gualtieri   
T:Hor gitevi a fidare
T:©
T:©
C:Luca Marenzio
Z:©
%%score [ 1 2 3 ]
L:1/8
Q:1/4=120
M:4/4
K:F
V:1 treble nm="Soprano 1" snm="S 1"
V:2 treble nm="Soprano 2" snm="S 2"
V:3 treble-8 nm="Tenor" snm="T"
V:1
"^1)" z4 c4 | f3 f d3 d | e4 c2 c2 | f3 f d3 d | e4 c2 g2- | g2 f2 e4 | d8 :| d8 |: f4 fefg | %9
w: Hor|gi- te- vi'a fi-|da- re, hor|gi- te- vi'a fi-|da- re'o lie-|* ti'A- man-|ti,||di cer- te ca- pri-|
w: Quan-|do ti di- te|tu sei, quan-|do ti di- te|tu sei lo|_ mio be-|ne,||tu sei lo co- re|
 f3 e d2 g2 | ^f4 g4 | e4 c4 | A4 d4 | g4 e4 | f4 e4 | c4 d4 | c8 :| %17
w: cio- se gio- va-|net- te,|che non|os- ser-|van mai|quel che|pro- met-||
w: mio lo mio te-|so- ro,|e par|che di-|ca per|te spas-|mo'e mo-||
V:2
"^2)""^1)" z4 A4 | d3 d =B3 B | c4 A2 A2 | d3 d =B3 B | c2 G2 A2 =B2 | ^c2 d4 c2 | d8 :| d8 |: %8
w: Hor|gi- te- vi'a fi-|da- re, hor|gi- te- vi'a fi-|da- re'o lie- ti'A-|man- * *|ti,|ti|
w: Poi|su'l piu bel- lo'un|al- tro, poi|su'l piu bel- lo'un|al- tro'a- man- te|ro- * *|va,|va,|
 d4 dcde | d3 c B2 G2 | c4 B2 G2- | G2 E4 C2- | C2 F4 D2- | D2 E4 A2- | A2 =B4 c2 | %15
w: di cer- te ca- pri-|cio- se gio- va-|net- te, che|_ non os-|* ser- van|_ mai quel|_ che pro-|
w: e di- ce'a te per|fat- ti spa- si-|ma- re, si|_ puo'u- na|_ vol- ta|_ l'an- no|_ paz- zei-|
"^-natural" AB c4 =B2 | c8 :| %17
w: met- * * *|te.|
w: a- * * *|re.|
V:3
"^3)""^1)""^4)" C4 F3 F | D3 D G4 | C2 C2 F3 F | D3 D G4 | C2 c4 G2 | A8 | D8 :| D4 B4 |: BABc B4 | %9
w: Hor gi- te|vi'a fi- da-|re, hor gi- te-|vi'a fi- da-|re'o lie- ti'A-|man-|ti,|ti di|cer- te ca- pri- cio-|
w: Mi- ra quel|che sa fa-|re, mi- ra quel|che sa fa-|re'an- cor a'in-|gra-|ta,|ta, cor|sen- za fe ma ne|
 B2 B4 c2 | A4 G4 | c4 A4 | F4 B4 | G4 A4 | D4 E4 | F4 G4 | C8 :| %17
w: se gio- va-|net- te,|che non|os- ser-|van mai|quel che|pro- met-|te.|
w: rin- gra- tio'a-|mo- re,|che scio-|lo'hà'il lac-|cio'e spen-|to lo|mio'ar- do-|re.|

